projects/packages/jetpack-mu-wpcom/src/assets/images/private.svg

<svg fill="none" height="442" viewBox="0 0 534 442" width="534" xmlns="http://www.w3.org/2000/svg" xmlns:xlink="http://www.w3.org/1999/xlink"><mask id="a" height="44" maskUnits="userSpaceOnUse" width="34" x="249" y="207"><path clip-rule="evenodd" d="m276.415 221.708h2.084c2.291 0 4.166 1.875 4.166 4.167v20.833c0 2.292-1.875 4.167-4.166 4.167h-25c-2.292 0-4.167-1.875-4.167-4.167v-20.833c0-2.292 1.875-4.167 4.167-4.167h2.083v-4.166c0-5.75 4.667-10.417 10.417-10.417s10.416 4.667 10.416 10.417zm-10.416-10.416c-3.459 0-6.25 2.791-6.25 6.25v4.166h12.5v-4.166c0-3.459-2.792-6.25-6.25-6.25zm-12.5 35.416v-20.833h25v20.833zm16.666-10.416c0 2.291-1.875 4.166-4.166 4.166-2.292 0-4.167-1.875-4.167-4.166 0-2.292 1.875-4.167 4.167-4.167 2.291 0 4.166 1.875 4.166 4.167z" fill="#fff" fill-rule="evenodd"/></mask><mask id="b" height="44" maskUnits="userSpaceOnUse" width="34" x="249" y="186"><path clip-rule="evenodd" d="m276.415 200.708h2.084c2.291 0 4.166 1.875 4.166 4.167v20.833c0 2.292-1.875 4.167-4.166 4.167h-25c-2.292 0-4.167-1.875-4.167-4.167v-20.833c0-2.292 1.875-4.167 4.167-4.167h2.083v-4.166c0-5.75 4.667-10.417 10.417-10.417s10.416 4.667 10.416 10.417zm-10.416-10.416c-3.459 0-6.25 2.791-6.25 6.25v4.166h12.5v-4.166c0-3.459-2.792-6.25-6.25-6.25zm-12.5 35.416v-20.833h25v20.833zm16.666-10.416c0 2.291-1.875 4.166-4.166 4.166-2.292 0-4.167-1.875-4.167-4.166 0-2.292 1.875-4.167 4.167-4.167 2.291 0 4.166 1.875 4.166 4.167z" fill="#fff" fill-rule="evenodd"/></mask><path d="m0 0h534v442h-534z" fill="#1381d8"/><path d="m76 82h381v278h-381z" fill="#e2e4e7"/><path d="m98.9531 103.563h337.228v42.3743h-337.228z" fill="#fff"/><path d="m140 315h105v45h-105z" fill="#fff"/><path d="m288 315h106v45h-106z" fill="#fff"/><path d="m76 167.124h381.368v127.123h-381.368z" fill="#fff"/><g mask="url(#a)"><path d="m241 204h50v50h-50z" fill="#1e1e1e"/></g><path d="m76 61h381v381h-381z" fill="#e2e4e7"/><g fill="#fff"><path d="m98.9531 82.5635h337.228v42.3743h-337.228z"/><path d="m140 294h105v64h-105z"/><path d="m118 378h296.62v63.5614h-296.62z"/><path d="m288 294h106v64h-106z"/><path d="m76 146.124h381.368v127.123h-381.368z"/></g><g mask="url(#b)"><path d="m241 183h50v50h-50z" fill="#1e1e1e"/></g></svg>

<svg width="534" height="442" viewBox="0 0 534 442" fill="none" xmlns="http://www.w3.org/2000/svg">
<path d="M0 0H534V442H0V0Z" fill="#1381D8"/>
<rect x="76" y="82" width="381" height="278" fill="#E2E4E7"/>
<rect x="98.9531" y="103.563" width="337.228" height="42.3743" fill="white"/>
<rect x="140" y="315" width="105" height="45" fill="white"/>
<rect x="288" y="315" width="106" height="45" fill="white"/>
<rect x="76" y="167.124" width="381.368" height="127.123" fill="white"/>
<mask id="mask0" mask-type="alpha" maskUnits="userSpaceOnUse" x="249" y="207" width="34" height="44">
<path fill-rule="evenodd" clip-rule="evenodd" d="M276.415 221.708H278.499C280.79 221.708 282.665 223.583 282.665 225.875V246.708C282.665 249 280.79 250.875 278.499 250.875H253.499C251.207 250.875 249.332 249 249.332 246.708V225.875C249.332 223.583 251.207 221.708 253.499 221.708H255.582V217.542C255.582 211.792 260.249 207.125 265.999 207.125C271.749 207.125 276.415 211.792 276.415 217.542V221.708ZM265.999 211.292C262.54 211.292 259.749 214.083 259.749 217.542V221.708H272.249V217.542C272.249 214.083 269.457 211.292 265.999 211.292ZM253.499 246.708V225.875H278.499V246.708H253.499ZM270.165 236.292C270.165 238.583 268.29 240.458 265.999 240.458C263.707 240.458 261.832 238.583 261.832 236.292C261.832 234 263.707 232.125 265.999 232.125C268.29 232.125 270.165 234 270.165 236.292Z" fill="white"/>
</mask>
<g mask="url(#mask0)">
<rect x="241" y="204" width="50" height="50" fill="#1E1E1E"/>
</g>
<rect x="76" y="61" width="381" height="381" fill="#E2E4E7"/>
<rect x="98.9531" y="82.5635" width="337.228" height="42.3743" fill="white"/>
<rect x="140" y="294" width="105" height="64" fill="white"/>
<rect x="118" y="378" width="296.62" height="63.5614" fill="white"/>
<rect x="288" y="294" width="106" height="64" fill="white"/>
<rect x="76" y="146.124" width="381.368" height="127.123" fill="white"/>
<mask id="mask1" mask-type="alpha" maskUnits="userSpaceOnUse" x="249" y="186" width="34" height="44">
<path fill-rule="evenodd" clip-rule="evenodd" d="M276.415 200.708H278.499C280.79 200.708 282.665 202.583 282.665 204.875V225.708C282.665 228 280.79 229.875 278.499 229.875H253.499C251.207 229.875 249.332 228 249.332 225.708V204.875C249.332 202.583 251.207 200.708 253.499 200.708H255.582V196.542C255.582 190.792 260.249 186.125 265.999 186.125C271.749 186.125 276.415 190.792 276.415 196.542V200.708ZM265.999 190.292C262.54 190.292 259.749 193.083 259.749 196.542V200.708H272.249V196.542C272.249 193.083 269.457 190.292 265.999 190.292ZM253.499 225.708V204.875H278.499V225.708H253.499ZM270.165 215.292C270.165 217.583 268.29 219.458 265.999 219.458C263.707 219.458 261.832 217.583 261.832 215.292C261.832 213 263.707 211.125 265.999 211.125C268.29 211.125 270.165 213 270.165 215.292Z" fill="white"/>
</mask>
<g mask="url(#mask1)">
<rect x="241" y="183" width="50" height="50" fill="#1E1E1E"/>
</g>
</svg>
